icons/HeartBeat_2_filled.svg

<svg width="24" height="24" viewBox="0 0 24 24" fill="none" xmlns="http://www.w3.org/2000/svg">
<path fill-rule="evenodd" clip-rule="evenodd" d="M9.3,2.74997c0.53632,0 1.0129,0.34212 1.1844,0.85028l4.2156,12.49075l1.5156,-4.4908c0.1715,-0.5081 0.6481,-0.8502 1.1844,-0.8502h3.6c0.6904,0 1.25,0.5596 1.25,1.25c0,0.6903 -0.5596,1.25 -1.25,1.25h-2.7026l-2.413,7.1497c-0.1715,0.5081 -0.6481,0.8503 -1.1844,0.8503c-0.5363,0 -1.0129,-0.3422 -1.1844,-0.8503l-4.2156,-12.49078l-1.51563,4.49078c-0.17151,0.5081 -0.64805,0.8503 -1.18437,0.8503h-3.6c-0.69036,0 -1.25,-0.5597 -1.25,-1.25c0,-0.6904 0.55964,-1.25 1.25,-1.25h2.7026l2.41303,-7.14975c0.17151,-0.50816 0.64805,-0.85028 1.18437,-0.85028z" fill="#002B51"/>
</svg>

<svg width="24" height="24" viewBox="0 0 24 24" fill="none" xmlns="http://www.w3.org/2000/svg">
<path fill-rule="evenodd" clip-rule="evenodd" d="M9.3 2.74997C9.83632 2.74997 10.3129 3.09209 10.4844 3.60025L14.7 16.091L16.2156 11.6002C16.3871 11.0921 16.8637 10.75 17.4 10.75H21C21.6904 10.75 22.25 11.3096 22.25 12C22.25 12.6903 21.6904 13.25 21 13.25H18.2974L15.8844 20.3997C15.7129 20.9078 15.2363 21.25 14.7 21.25C14.1637 21.25 13.6871 20.9078 13.5156 20.3997L9.3 7.90892L7.78437 12.3997C7.61286 12.9078 7.13632 13.25 6.6 13.25H3C2.30964 13.25 1.75 12.6903 1.75 12C1.75 11.3096 2.30964 10.75 3 10.75H5.7026L8.11563 3.60025C8.28714 3.09209 8.76368 2.74997 9.3 2.74997Z" fill="#002B51"/>
</svg>
